X:34
T:Reel de l'amiti\'e
M:4/4
L:1/8
K:D
B |: d2e2 f2ff | fedf BAFA | d2e2 ffdf | agfa g3c |
e2f2 g2ga | gfe2 c3c | cAce aaga | baga fafB | 
 d2e2 f2ff | fedf BAFA | d2e2 ffdf | agfa g3c |
e2f2 g2ga | gfe2 c3c | cAce abaf | gece d3B ::
D2F2 A2FA | dBAd BBAA | ABcd e2ce | fedf e3F |
D2F2 A2FA | dBAd BBAA | ABcd edeg | fgec d3F :|

